X:1
T:Title
%%score 1 ( 2 3 )
L:1/8
Q:1/4=60
M:6/8
K:E
V:1 treble nm="Strings 1, Soprano"
V:2 bass nm="Strings 1, Bass"
V:3 bass 
V:1
 z3 z2 [GB] | [Ac]2 [GB] E2 [EG] | [EB]2 [EA] C2 [EA] | [EG] [DF]2 E2 [DF] | [EG]3- [EG]2 [GB] | %5
w: 1.~I~|thank~ Thee,~ Lord,~ that~|I~ can~ cast~ My~|bur dens~ all~ on~|Thee;~ * Though~|
 [Ac]2 [GB] E2 [EG] | [EB]2 [EA] C2 [EA] | [EG] [DF]2 [B,D]2 [B,F] | [B,E]3- [B,E]2 [EG] | %9
w: I~ be~ tempt ed,~|Thou~ has~ died~ To~|bear~ them~ all~ for~|me.~ * *|
 [DF]2 [EG] [FA]2 [Ac] | [GB]2 [FA] [EG]2 [GB] | [Ge]2 [GB] [EG][FA][EG] | [DF]3- [DF]2 [GB] | %13
w: ||||
 [Ac]2 [GB] E2 [EG] | [EB]2 [EA] C2 [EA] | [EG] [DF]2 [B,D]2 [B,F] | [B,E]6 |] %17
w: ||||
V:2
 z3 z2 [E,E] | [E,E]2 [E,E] [E,G,]2 [E,B,] | [A,,C]2 [A,,C] [A,,A,]2 [A,,C] | %3
 [B,,B,] [B,,B,]2 [G,,B,]2 [B,,B,] | [E,B,]3- [E,B,]2 [E,E] | [E,E]2 [E,E] [E,G,]2 [E,B,] | %6
 [A,,C]2 [A,,C] [A,,A,]2 [A,,C] | [B,,B,] [B,,B,]2 [B,,F,]2 [B,,A,] | [E,G,]3- [E,G,]2 [E,B,] | %9
 [B,,B,]2 [B,,B,] [B,,B,]2 [B,,D] | [E,E]2 [E,B,] [E,B,]2 [E,B,] | z3 .B,3 | %12
 [B,,B,]3- [B,,B,]2 [E,E] | [E,E]2 [E,E] [E,G,]2 [E,B,] | [A,,C]2 [A,,C] [A,,A,]2 [A,,C] | %15
 [B,,B,] [B,,B,]2 [B,,F,]2 [B,,A,] | [E,G,]6 |] %17
V:3
 x6 | x6 | x6 | x6 | x6 | x6 | x6 | x6 | x6 | x6 | x6 | [E,B,]2 [E,B,] E,D,[E,B,] | x6 | x6 | x6 | %15
 x6 | x6 |] %17

